icons/gh-copilot-16.svg

<svg width="16" height="16" viewBox="0 0 16 16" fill="none" xmlns="http://www.w3.org/2000/svg">
<path d="M6.25 9C6.66421 9 7 9.33579 7 9.75V10.75C7 11.1642 6.66421 11.5 6.25 11.5C5.83579 11.5 5.5 11.1642 5.5 10.75V9.75C5.5 9.33579 5.83579 9 6.25 9Z" fill="#24292F"/>
<path d="M10.5 9.75C10.5 9.33579 10.1642 9 9.75 9C9.33579 9 9 9.33579 9 9.75V10.75C9 11.1642 9.33579 11.5 9.75 11.5C10.1642 11.5 10.5 11.1642 10.5 10.75V9.75Z" fill="#24292F"/>
<path fill-rule="evenodd" clip-rule="evenodd" d="M16 9.2V10.993C15.9995 11.2245 15.8848 11.4502 15.698 11.587C13.4928 13.2014 10.7719 14.5 8 14.5C4.9334 14.5 1.86312 12.7329 0.302 11.587C0.115206 11.4502 0.000451852 11.2245 0 10.993V9.2C0 8.964 0.075 8.736 0.214 8.546L0.701 7.887C0.961823 7.53343 1.34971 7.44 1.763 7.44C1.919 5.66 2.288 4.39 3.17 3.46C4.85 1.68 7.08 1.5 8 1.5C8.92 1.5 11.15 1.68 12.83 3.46C13.711 4.39 14.081 5.66 14.237 7.44C14.6511 7.44 15.0373 7.53183 15.298 7.887L15.785 8.547C15.925 8.737 16 8.964 16 9.2ZM12.948 8.385C12.9266 7.97662 12.595 7.81637 12.25 7.703C11.8862 7.93123 11.442 8.021 11.017 8.021C10.565 8.021 9.722 7.913 9.021 7.213C8.844 7.037 8.723 6.761 8.641 6.455C8.42833 6.43337 8.21475 6.42203 8.001 6.421C7.811 6.421 7.592 6.432 7.359 6.455C7.277 6.761 7.156 7.037 6.979 7.213C6.279 7.913 5.435 8.021 4.983 8.021C4.55787 8.021 4.11253 7.93223 3.749 7.703C3.4051 7.816 3.07487 7.97895 3.053 8.385C3.01638 9.15253 3.0132 9.91933 3.01002 10.6865C3.00885 10.9663 3.00717 11.0655 3.0041 11.2467C3.00295 11.3148 3.00159 11.3947 3 11.5C3.00155 11.7237 3.13637 11.9314 3.34 12.024C4.995 12.778 6.56 13.158 8 13.158C9.438 13.158 11.003 12.778 12.657 12.024C12.8606 11.9314 12.9955 11.7237 12.997 11.5C13.0168 10.3489 13.0019 9.53502 12.947 8.385H12.948ZM3.377 6.455C3.647 6.725 4.157 6.905 4.707 6.905C5.127 6.905 5.927 6.815 6.587 6.145C6.877 5.865 7.04 5.49 7.02 4.78C7 4.21 6.84 3.74 6.6 3.54C6.34 3.31 5.75 3.21 5.09 3.27C4.39 3.34 3.8 3.57 3.5 3.89C2.85 4.6 3.007 6.075 3.377 6.455ZM8.98 4.78C8.96 5.49 9.157 5.865 9.447 6.145C10.107 6.815 10.907 6.905 11.327 6.905C11.877 6.905 12.387 6.725 12.657 6.455C13.027 6.075 13.15 4.6 12.5 3.89C12.2 3.57 11.61 3.34 10.91 3.27C10.25 3.21 9.66 3.31 9.4 3.54C9.16 3.74 9 4.21 8.98 4.78Z" fill="#24292F"/>
</svg>

<svg xmlns="http://www.w3.org/2000/svg" width="16" height="16" viewBox="0 0 16 16"><path d="M6.25 9a.75.75 0 01.75.75v1a.75.75 0 01-1.5 0v-1A.75.75 0 016.25 9zm4.25.75a.75.75 0 00-1.5 0v1a.75.75 0 001.5 0v-1z"/><path fill-rule="evenodd" d="M16 9.2v1.793a.747.747 0 01-.302.594C13.493 13.201 10.772 14.5 8 14.5c-3.067 0-6.137-1.767-7.698-2.913A.747.747 0 010 10.993V9.2c0-.236.075-.464.214-.654l.487-.659c.26-.354.649-.447 1.062-.447.156-1.78.525-3.05 1.407-3.98C4.85 1.68 7.08 1.5 8 1.5c.92 0 3.15.18 4.83 1.96.881.93 1.251 2.2 1.407 3.98.414 0 .8.092 1.061.447l.487.66c.14.19.215.417.215.653zm-3.052-.815c-.021-.408-.353-.569-.698-.682-.364.228-.808.318-1.233.318-.452 0-1.295-.108-1.996-.808-.177-.176-.298-.452-.38-.758a6.641 6.641 0 00-.64-.034c-.19 0-.409.011-.642.034-.082.306-.203.582-.38.758-.7.7-1.544.808-1.996.808-.425 0-.87-.089-1.234-.318-.344.113-.674.276-.696.682-.037.768-.04 1.534-.043 2.302-.001.28-.003.379-.006.56L3 11.5a.585.585 0 00.34.524c1.655.754 3.22 1.134 4.66 1.134 1.438 0 3.003-.38 4.657-1.134a.585.585 0 00.34-.524 43.32 43.32 0 00-.05-3.115h.001zm-9.571-1.93c.27.27.78.45 1.33.45.42 0 1.22-.09 1.88-.76.29-.28.453-.655.433-1.365-.02-.57-.18-1.04-.42-1.24-.26-.23-.85-.33-1.51-.27-.7.07-1.29.3-1.59.62-.65.71-.493 2.185-.123 2.565zM8.98 4.78c-.02.71.177 1.085.467 1.365.66.67 1.46.76 1.88.76.55 0 1.06-.18 1.33-.45.37-.38.493-1.855-.157-2.565-.3-.32-.89-.55-1.59-.62-.66-.06-1.25.04-1.51.27-.24.2-.4.67-.42 1.24z"/></svg>
